X: 10482
T: RURAL FELICITY
Q: "Lively"
%R: jig
B: "Edinburgh Repository of Music" v.1 p.48 #2
F: http://digital.nls.uk/special-collections-of-printed-music/pageturner.cfm?id=87776133
Z: 2015 John Chambers <jc:trillian.mit.edu>
M: 6/8
L: 1/8
K: D
!segno!A |\
AFG Aaf | e>de fdB | AFA BdF | EEE E2A |\
AFG Aaf | e>de fdB | AFG Aaf | ddd d2 :|
a |\
afa afa | bgb bgb | afa agf | eee efg |\
a3 f3 | d>de fdB | A2g faf | ddd d2 !segno!|]

%%sep 2 1 500
%%sep 1 1 500

